assets/icons/bowtie/uE60A-build.svg

<svg xmlns="http://www.w3.org/2000/svg" viewBox="0 0 448 448"><path d="M302.848 119.313l-78.848 79.312-79.84-79.313 22.816-22.625 41.024 40.688.064-137.375h31.872l.064 137.375 40.352-40.688 22.496 22.626zm-142.848 104.687h-64v64h64v-64zm96 64h-64v-64h64v64zm96 0h-64v-64h64v64zm32-128v160h-320v-160h-32v288h384v-288h-32zm-256 256v-64h64v64h-64zm128 0v-64h64v64h-64z"/></svg>

<svg xmlns="http://www.w3.org/2000/svg" viewBox="0 0 448 448"><path d="M302.848 119.313L224 198.625l-79.84-79.313 22.816-22.625L208 137.375 208.064 0h31.872L240 137.375l40.352-40.688 22.496 22.626zM160 224H96v64h64v-64zm96 64h-64v-64h64v64zm96 0h-64v-64h64v64zm32-128v160H64V160H32v288h384V160h-32zM128 416v-64h64v64h-64zm128 0v-64h64v64h-64z"/></svg>
